X:1
T:Title
%%score ( 1 2 ) { 3 | 4 }
L:1/8
Q:1/4=98
M:4/4
K:F
V:1 treble nm="Grand Piano, Soprano"
V:2 treble 
V:3 treble nm="Choir Pad, Bass"
V:4 bass 
V:1
 C2 [FA]2 [FA][FA] [FA]2 | [_EA][EA] [DB]2 [DB][DB] [DB]2- | [DB][FB] [FA]2 [FA][FA] [Fc]2 | %3
w: By~William~W.~Vansant * * * *|||
 [GB][FA] [EG]6 | z C [FA]2 [FA][EG] F2 | FF F2 [EG][_EA] [DB]2- | [DB][Fd] [Fc]2 [FA]F [EG]2 | %7
w: ||||
 [FA][EG] F6 | z2 G6 | z2 A6 | .A2 z2 z4 | F2 [EG]6 | z2 A6 | [CG][CF] [DF]2 [DB]2 [Fd]2- | %14
w: |||||||
 [Fd][Fd] [Fc]2 [FA]F [EG]2 | [FA][EG] F6- | F2 z2 z4 |] %17
w: |||
V:2
 x8 | x8 | x8 | x8 | x8 | x8 | x8 | x8 | EF z2 E2 E2 | FG z2 F2 F2 | F-[FB] [Fc]2 [Fd][Fc] [FA]2 | %11
 x8 | C2 z2 F2 F2 | x8 | x8 | x8 | x8 |] %17
V:3
 A,2 C2 CC C2 | CC[K:bass] B,2 F,F, B,2- | B,[K:treble]D C2 CC A,2 | CC C6 | %4
 z A, C2 C[K:bass]B, A,2 | A,A, A,2 B,C B,2- | B,B, A,2[K:treble] CA, B,2 | CB, A,6 | z4 C2 C2 | %9
 z4 C2 C2 | C[K:bass]B, A,2 B,A, C2 | A,2 C6 | z4 C2 C2 | B,A, B,2 B,2 B,2- | B,B, A,2 CA, B,2 | %15
 CB, A,6- | A,2 z2 z4 |] %17
V:4
 F,2 F,2 F,F, F,2 | F,F, B,,2 B,,B,, B,,2- | B,,B,, F,2 F,F, F,2 | E,F, C,6 | z F, F,2 F,F, F,2 | %5
 F,F, F,2 F,F, B,,2- | B,,B,, C,2 .C,2 C,2 | C,C, F,6 | z4 C,2 C,2 | z4 F,2 F,2 | %10
 F,2 F,2 F,F, F,2 | F,2 C,6 | z4 F,2 F,2 | F,F, B,,2 B,,2 B,,2- | B,,B,, C,2 C,C, C,2 | C,2 F,6- | %16
 F,2 z2 z4 |] %17

